public/img/Mypage/Share.svg

<svg width="163" height="73" viewBox="0 0 163 73" fill="none" xmlns="http://www.w3.org/2000/svg">
<circle cx="81.6006" cy="21.8369" r="21.8135" fill="#FFA973"/>
<path d="M80.6125 27.5736C80.7148 27.6737 80.796 27.7926 80.8514 27.9236C80.9068 28.0545 80.9354 28.195 80.9354 28.3368C80.9354 28.4786 80.9068 28.619 80.8514 28.75C80.796 28.8809 80.7148 28.9999 80.6125 29.1L80.144 29.5597C79.6468 30.0495 79.0555 30.4377 78.4044 30.7019C77.7533 30.9661 77.0553 31.1009 76.3508 31.0987C75.2898 31.099 74.2525 30.7905 73.3702 30.2122C72.4879 29.6339 71.8003 28.8117 71.3942 27.8497C70.9881 26.8877 70.8819 25.8291 71.089 24.8079C71.2961 23.7867 71.8071 22.8487 72.5576 22.1125L75.7369 18.9923C76.4131 18.3288 77.2578 17.8547 78.1835 17.6191C79.1091 17.3835 80.0821 17.395 81.0017 17.6524C81.9213 17.9098 82.7541 18.4037 83.4139 19.0831C84.0737 19.7624 84.5364 20.6025 84.7543 21.5163C84.7903 21.6553 84.7978 21.7999 84.7762 21.9417C84.7546 22.0835 84.7044 22.2197 84.6285 22.3422C84.5526 22.4647 84.4525 22.5711 84.3342 22.6552C84.2158 22.7393 84.0816 22.7993 83.9393 22.8318C83.797 22.8643 83.6495 22.8686 83.5055 22.8445C83.3615 22.8204 83.2238 22.7682 83.1006 22.6912C82.9774 22.6142 82.871 22.5138 82.7878 22.3959C82.7046 22.2781 82.6463 22.1451 82.6161 22.0048C82.4868 21.4654 82.2131 20.9696 81.8232 20.5688C81.4334 20.1679 80.9415 19.8766 80.3984 19.7248C79.8554 19.573 79.2808 19.5663 78.7343 19.7055C78.1877 19.8446 77.6889 20.1244 77.2895 20.5161L74.1102 23.6363C73.667 24.0709 73.3651 24.6247 73.2426 25.2276C73.1202 25.8306 73.1827 26.4557 73.4222 27.0238C73.6618 27.5919 74.0676 28.0776 74.5884 28.4193C75.1092 28.7611 75.7216 28.9436 76.348 28.9438C76.7643 28.945 77.1767 28.8651 77.5613 28.7088C77.9459 28.5525 78.2951 28.3229 78.5887 28.0333L79.0562 27.5736C79.1582 27.473 79.2795 27.3932 79.413 27.3387C79.5465 27.2842 79.6897 27.2562 79.8343 27.2562C79.9789 27.2562 80.1221 27.2842 80.2556 27.3387C80.3892 27.3932 80.5104 27.473 80.6125 27.5736ZM90.6445 14.6824C89.6382 13.6952 88.2736 13.1406 86.8508 13.1406C85.428 13.1406 84.0634 13.6952 83.0571 14.6824L82.5896 15.1413C82.3833 15.3437 82.2675 15.6182 82.2675 15.9045C82.2675 16.1907 82.3833 16.4653 82.5896 16.6677C82.7958 16.8701 83.0756 16.9838 83.3673 16.9838C83.6589 16.9838 83.9387 16.8701 84.1449 16.6677L84.6134 16.208C85.2079 15.6245 86.0142 15.2968 86.8549 15.2968C87.6956 15.2968 88.502 15.6245 89.0964 16.208C89.6909 16.7914 90.0249 17.5827 90.0249 18.4078C90.0249 19.2329 89.6909 20.0242 89.0964 20.6077L85.9116 23.7234C85.6181 24.013 85.2689 24.2426 84.8843 24.3989C84.4997 24.5552 84.0873 24.635 83.671 24.6338C82.9569 24.6333 82.2639 24.3961 81.7044 23.9606C81.145 23.5251 80.7518 22.9169 80.5887 22.2347C80.5227 21.9563 80.3467 21.715 80.0994 21.564C79.8522 21.4129 79.5539 21.3645 79.2703 21.4292C78.9866 21.494 78.7408 21.6667 78.5869 21.9094C78.433 22.152 78.3836 22.4447 78.4496 22.7231C78.7251 23.8786 79.3902 24.9089 80.3371 25.6468C81.2841 26.3848 82.4573 26.7872 83.6664 26.7888H83.671C84.3759 26.7907 85.0741 26.6554 85.7254 26.3908C86.3766 26.1262 86.968 25.7374 87.4652 25.2471L90.6445 22.1269C91.1426 21.6381 91.5378 21.0578 91.8074 20.4192C92.077 19.7805 92.2157 19.096 92.2157 18.4047C92.2157 17.7134 92.077 17.0288 91.8074 16.3902C91.5378 15.7515 91.1426 15.1712 90.6445 14.6824Z" fill="white"/>
<path d="M65.9795 66.7207C68.2822 66.7266 69.7354 67.4531 69.7412 68.7129C69.7354 69.9434 68.2822 70.6816 65.9795 70.6816C63.7002 70.6816 62.2295 69.9434 62.2295 68.7129C62.2295 67.4531 63.7002 66.7266 65.9795 66.7207ZM61.2334 65.959V64.9043H64.96V62.9824H66.249V64.9043H70.8428V65.959H61.2334ZM62.335 61.6348V60.6035H69.6709V61.4824C69.6768 62.3203 69.6768 63.2109 69.3779 64.2949L68.0889 64.1777C68.3525 63.1523 68.3701 62.4023 68.3701 61.6348H62.335ZM63.542 68.7129C63.5303 69.334 64.4502 69.6738 65.9795 69.6738C67.5146 69.6738 68.4404 69.334 68.4521 68.7129C68.4404 68.0684 67.5146 67.7051 65.9795 67.7051C64.4502 67.7051 63.5303 68.0684 63.542 68.7129ZM81.249 66.041V67.0957H78.8936V70.6934H77.5693V67.0957H75.2256V70.6934H73.8896V67.0957H71.5693V66.041H81.249ZM72.5889 62.8418C72.583 61.4004 74.1299 60.4805 76.3857 60.4746C78.6416 60.4805 80.2002 61.4004 80.2061 62.8418C80.2002 64.2656 78.6416 65.1621 76.3857 65.1621C74.1299 65.1621 72.583 64.2656 72.5889 62.8418ZM73.9248 62.8418C73.9189 63.6504 74.8916 64.125 76.3857 64.1309C77.8857 64.125 78.8584 63.6504 78.8584 62.8418C78.8584 62.0098 77.8857 61.5293 76.3857 61.5293C74.8916 61.5293 73.9189 62.0098 73.9248 62.8418ZM90.249 60.0996V64.3184H91.8779V65.3965H90.249V70.6934H88.96V60.0996H90.249ZM81.8936 62.7715V61.7285H84.4014V60.252H85.7021V61.7285H88.1396V62.7715H81.8936ZM82.3857 65.959C82.374 64.4941 83.5107 63.457 85.0576 63.4629C86.5811 63.457 87.7119 64.4941 87.7178 65.959C87.7119 67.418 86.5811 68.4434 85.0576 68.4434C83.5107 68.4434 82.374 67.418 82.3857 65.959ZM83.6279 65.959C83.6221 66.8203 84.2256 67.3711 85.0576 67.3652C85.8721 67.3711 86.4639 66.8203 86.4756 65.959C86.4639 65.0977 85.8721 64.5293 85.0576 64.5293C84.2256 64.5293 83.6221 65.0977 83.6279 65.959ZM101.171 60.0996V70.6934H99.8584V60.0996H101.171ZM92.3936 67.7754C95.1709 66.457 96.4482 64.6641 96.6826 62.2559H92.9326V61.2246H98.0068C98.0068 64.377 96.7822 67.0547 93.0732 68.8184L92.3936 67.7754Z" fill="#3C332B"/>
</svg>

<svg xmlns="http://www.w3.org/2000/svg" width="163" height="73" fill="none"><circle cx="81.601" cy="21.837" r="21.814" fill="#FFA973"/><path fill="#fff" d="M80.613 27.574a1.08 1.08 0 0 1 .322.763 1.06 1.06 0 0 1-.323.763l-.468.46a5.3 5.3 0 0 1-1.74 1.142 5.4 5.4 0 0 1-2.053.397 5.44 5.44 0 0 1-2.98-.887 5.3 5.3 0 0 1-1.977-2.362 5.17 5.17 0 0 1-.305-3.042 5.23 5.23 0 0 1 1.469-2.695l3.179-3.12a5.4 5.4 0 0 1 2.447-1.374 5.46 5.46 0 0 1 2.818.033c.92.258 1.752.752 2.412 1.431.66.68 1.122 1.52 1.34 2.433a1.06 1.06 0 0 1-.126.826 1.09 1.09 0 0 1-.689.49 1.12 1.12 0 0 1-.838-.14 1.1 1.1 0 0 1-.485-.687 3.1 3.1 0 0 0-.793-1.436 3.2 3.2 0 0 0-1.425-.844 3.2 3.2 0 0 0-1.664-.02 3.2 3.2 0 0 0-1.444.811l-3.18 3.12a3.1 3.1 0 0 0-.867 1.592 3.06 3.06 0 0 0 .18 1.796c.239.568.645 1.054 1.165 1.395a3.2 3.2 0 0 0 1.76.525 3.2 3.2 0 0 0 1.213-.235 3.2 3.2 0 0 0 1.028-.676l.467-.46a1.1 1.1 0 0 1 .778-.317 1.12 1.12 0 0 1 .778.318m10.031-12.892a5.42 5.42 0 0 0-3.793-1.541 5.42 5.42 0 0 0-3.794 1.541l-.467.46a1.07 1.07 0 0 0 0 1.526 1.11 1.11 0 0 0 1.555 0l.468-.46a3.2 3.2 0 0 1 2.242-.911 3.2 3.2 0 0 1 2.241.911c.595.583.929 1.375.929 2.2s-.334 1.616-.929 2.2l-3.184 3.115c-.294.29-.643.52-1.028.676a3.2 3.2 0 0 1-1.213.235 3.2 3.2 0 0 1-1.967-.673 3.1 3.1 0 0 1-1.115-1.726 1.08 1.08 0 0 0-.49-.671 1.12 1.12 0 0 0-.829-.135c-.283.065-.53.238-.683.48a1.06 1.06 0 0 0-.137.814 5.26 5.26 0 0 0 1.887 2.924 5.43 5.43 0 0 0 3.33 1.142h.004a5.4 5.4 0 0 0 2.054-.398 5.3 5.3 0 0 0 1.74-1.144l3.18-3.12a5.3 5.3 0 0 0 1.162-1.708 5.18 5.18 0 0 0 0-4.029 5.3 5.3 0 0 0-1.163-1.708"/><path fill="#3C332B" d="M65.98 66.72c2.302.007 3.755.733 3.761 1.993-.006 1.23-1.459 1.969-3.761 1.969-2.28 0-3.75-.739-3.75-1.97 0-1.259 1.47-1.985 3.75-1.991m-4.747-.761v-1.055h3.727v-1.922h1.289v1.922h4.594v1.055zm1.102-4.324v-1.032h7.336v.88c.006.837.006 1.728-.293 2.812l-1.29-.117c.265-1.026.282-1.776.282-2.543zm1.207 7.078c-.012.621.908.96 2.438.96 1.535 0 2.46-.339 2.472-.96-.012-.645-.937-1.008-2.472-1.008-1.53 0-2.45.363-2.438 1.008m17.707-2.672v1.055h-2.355v3.597h-1.325v-3.597h-2.343v3.597H73.89v-3.597h-2.32V66.04zm-8.66-3.2c-.006-1.44 1.54-2.36 3.797-2.366 2.256.005 3.814.925 3.82 2.367-.006 1.424-1.564 2.32-3.82 2.32s-3.803-.896-3.797-2.32m1.336 0c-.006.81.967 1.284 2.46 1.29 1.5-.006 2.473-.48 2.473-1.29 0-.831-.972-1.312-2.472-1.312-1.494 0-2.467.48-2.461 1.313M90.249 60.1v4.218h1.629v1.079h-1.629v5.296H88.96V60.1zm-8.355 2.672v-1.044H84.4v-1.476h1.301v1.476h2.438v1.044zm.492 3.187c-.012-1.465 1.125-2.502 2.672-2.496 1.523-.006 2.654 1.031 2.66 2.496-.006 1.459-1.137 2.484-2.66 2.484-1.547 0-2.684-1.025-2.672-2.484m1.242 0c-.006.861.598 1.412 1.43 1.406.814.006 1.406-.545 1.418-1.406-.012-.861-.604-1.43-1.418-1.43-.832 0-1.436.569-1.43 1.43m17.543-5.86v10.594h-1.313V60.1zm-8.777 7.676c2.777-1.318 4.054-3.11 4.289-5.52h-3.75v-1.03h5.074c0 3.152-1.225 5.83-4.934 7.593z"/></svg>
